public/images/ondas2.svg

<svg width="437" height="549" viewBox="0 0 437 549" fill="none" xmlns="http://www.w3.org/2000/svg">
<path fill-rule="evenodd" clip-rule="evenodd" d="M42.5686 12.1981C57.1377 5.40998 73.3195 2.04268 91.7883 2.04268C110.653 2.04268 131.908 5.55979 156.249 12.5343C172.104 17.0778 186.523 20.941 199.53 24.3845C196.414 23.658 193.215 22.9179 189.927 22.1573C176.138 18.9676 160.508 15.351 142.986 10.8804C100.114 -0.0575305 69.2867 1.01776 44.9609 12.0856C44.1563 12.1153 43.3589 12.1528 42.5686 12.1981ZM37.101 12.6456C66.3459 -2.86134 103.092 -4.76954 156.802 10.6214C175.547 15.9929 192.289 20.4142 207.064 24.3159L207.119 24.3306C293.977 47.2645 323.238 54.9914 380.187 153.16C415.785 214.522 433.213 250.048 435.975 285.971C438.78 322.465 426.789 358.502 391.729 418.936C356.67 479.37 331.307 507.724 298.148 523.552C271.155 536.437 239.385 540.542 188.937 541.577C172.665 546.088 158.104 549 144.638 549C140.804 549 137.058 548.764 133.388 548.262C133.283 548.262 133.179 548.262 133.074 548.262C127.375 548.262 122.02 547.86 116.882 547.018C105.849 548.298 96.0129 548.995 87.0287 548.996C70.9617 548.997 57.6217 546.767 45.0098 541.65C36.8569 538.342 29.0646 533.883 21.2228 527.842C17.8025 526.533 14.4761 525.106 11.2193 523.552C-21.9397 507.724 -47.3027 479.37 -82.3627 418.936C-117.422 358.502 -129.414 322.465 -126.608 285.971C-123.846 250.047 -106.419 214.522 -70.8207 153.16C-67.6357 147.671 -64.5357 142.296 -61.5047 137.04L-61.5029 137.037C-58.9118 132.545 -56.3707 128.139 -53.8703 123.824C-33.9941 58.3705 -13.9795 18.1343 37.101 12.6456ZM-49.3846 116.109C-39.9623 86.2531 -30.1722 62.0133 -16.8633 44.8234C-4.16391 28.4205 11.7 18.7464 32.2577 15.3775C0.780022 34.2168 -22.1546 69.4672 -49.3846 116.109ZM-52.0124 124.603C-25.7654 79.3175 -3.70742 43.5811 24.6313 22.8448C28.8335 19.7701 33.1677 17.0388 37.655 14.6492C38.5058 14.558 39.3643 14.4768 40.2305 14.4055C1.37044 34.8795 -20.6989 82.3308 -51.0614 147.613L-51.064 147.619C-53.572 153.012 -56.138 158.529 -58.775 164.163C-63.0811 173.364 -67.0599 181.996 -70.7172 190.14C-70.4255 189.103 -70.1312 188.058 -69.8343 187.007C-68.2987 181.567 -66.8047 176.235 -65.3417 171.013L-65.3378 170.999L-65.3366 170.995L-65.0122 169.837L-65.0106 169.831C-60.4977 153.719 -56.2627 138.598 -52.0124 124.603ZM-56.3434 132.092C-57.4757 134.054 -58.6166 136.032 -59.7667 138.026L-59.7707 138.033C-62.8017 143.289 -65.9027 148.665 -69.0877 154.155C-104.532 215.252 -121.882 250.582 -124.614 286.125C-127.385 322.171 -115.464 357.896 -80.6297 417.941C-45.7957 477.986 -20.6687 506.122 12.0843 521.757C13.3449 522.359 14.6163 522.942 15.9001 523.505C3.9153 513.207 -8.3979 499.033 -22.4798 479.477C-32.6851 466.135 -43.4402 449.905 -55.406 430.067C-90.788 371.406 -103.698 336.003 -103.039 299.441C-102.536 271.524 -93.917 243.42 -76.3231 202.832C-74.8792 197.575 -73.358 192.127 -71.7603 186.468C-70.1093 180.621 -68.5063 174.898 -66.9393 169.303L-66.9368 169.294C-63.2649 156.184 -59.7871 143.767 -56.3434 132.092ZM28.1203 530.282C33.9604 534.26 39.7927 537.384 45.7648 539.807C63.7269 547.094 83.3146 548.407 110.466 545.709C109.606 545.498 108.751 545.274 107.901 545.035C95.9299 544.656 85.4097 543.36 75.6993 540.92C67.7566 539.859 60.4316 538.389 53.524 536.432C44.3453 534.851 35.9648 532.837 28.1203 530.282ZM38.9994 531.344C33.2185 529.882 27.7547 528.181 22.5196 526.204C16.0413 521.185 9.49585 515.06 2.68384 507.62C13.5064 517.578 24.3419 524.732 36.095 530.071C37.0573 530.508 38.0252 530.932 38.9994 531.344ZM59.1388 535.318C57.393 535.057 55.6764 534.782 53.9873 534.492C48.0234 532.798 42.3798 530.738 36.925 528.259C16.7812 519.108 -0.669212 504.494 -20.1183 479.277C-26.5163 470.471 -33.253 460.577 -40.4473 449.471C-75.9313 394.69 -90.2762 360.921 -93.3752 324.879C-96.1628 292.456 -89.5699 258.616 -74.4285 203.484C-69.3607 191.799 -63.5454 179.07 -56.962 165.003C-54.4482 159.633 -51.9998 154.369 -49.6038 149.217L-49.249 148.455L-49.2469 148.45C-24.5959 95.4489 -5.12524 53.5856 22.231 29.3885C29.429 23.0211 37.1566 17.9299 45.556 14.0951C46.2299 14.0714 46.9083 14.0533 47.5912 14.0407C5.03645 32.4946 -13.8495 83.946 -40.9081 157.663L-40.9122 157.674L-40.9229 157.703C-42.9415 163.201 -45.006 168.824 -47.1292 174.571C-70.8942 238.866 -81.9762 275.794 -80.6792 311.756C-79.3622 348.285 -65.6412 383.013 -30.0552 439.888C5.48647 496.693 29.681 522.585 59.1388 535.318ZM91.563 538.507C82.9814 538.003 75.0264 537.331 67.5889 536.448C65.0447 535.579 62.5488 534.617 60.0878 533.558C31.3508 521.189 6.5528 494.631 -28.3572 438.837C-63.7382 382.288 -77.3772 347.827 -78.6802 311.685C-79.9652 276.054 -68.9242 239.304 -45.2522 175.257C-43.309 170 -41.4159 164.845 -39.5613 159.794L-39.5586 159.787L-39.5578 159.785L-39.0332 158.356C-19.1712 104.244 -3.48322 61.5045 20.3748 36.0328C29.9026 25.8597 40.7082 18.5663 53.2455 14.0604C57.2469 14.1587 61.3967 14.4333 65.7015 14.8822C9.18785 24.6147 -2.66422 83.199 -21.4959 176.284L-21.4987 176.297L-21.545 176.526L-21.5463 176.532L-21.5496 176.549C-22.6794 182.134 -23.8346 187.844 -25.0267 193.677C-38.5397 259.799 -44.1417 297.539 -39.4267 333.17C-34.6997 368.897 -19.1377 403.313 16.0793 455.926C47.4642 502.812 69.0348 526.667 91.563 538.507ZM107.102 539.223C103.524 539.098 100.047 538.953 96.665 538.784C73.1172 527.928 50.4319 503.655 17.7433 454.821C-17.7427 401.808 -32.6997 368.766 -37.4437 332.909C-41.1717 304.744 -39.9697 276.785 -23.0667 194.073C-21.8567 188.151 -20.6837 182.356 -19.5377 176.69C-8.27774 121.031 0.616264 77.0668 18.1283 49.533C31.1356 29.0821 48.8763 18.1599 73.7595 15.8983C76.0552 16.2356 78.3923 16.618 80.7717 17.0452C9.85074 17.7579 1.71419 79.3213 -12.2369 184.879L-12.237 184.88L-12.2387 184.893L-12.2853 185.246L-12.2879 185.265L-12.2896 185.278L-12.2898 185.28C-13.0286 190.867 -13.7838 196.579 -14.5657 202.413C-23.5027 269.086 -26.6637 307.036 -20.4617 342.38C-14.2407 377.822 1.86426 411.439 36.9813 462.284C66.525 505.06 86.9625 527.768 107.102 539.223ZM151.814 539.884C137.132 539.868 123.817 539.727 111.647 539.369C90.7242 528.72 69.3269 505.602 38.6292 461.157C3.23625 409.913 -12.2448 377.628 -18.4908 342.038C-23.3978 314.081 -23.7647 286.096 -12.5838 202.677C-11.7976 196.817 -11.0394 191.081 -10.2978 185.471L-10.2558 185.153C-2.83775 129.022 3.02225 84.6873 17.6673 56.3444C30.8152 30.8976 51.0522 19.0415 82.2233 19.0415C86.3905 19.0415 90.7553 19.253 95.3233 19.6733C105.412 21.4312 114.668 22.9106 123.124 24.2621L123.125 24.2623C192.614 35.3718 216.023 39.1143 273.558 127.938C309.656 183.668 328.114 216.316 335.372 251.124C342.736 286.436 338.755 323.358 320.684 387.352C302.855 450.487 287.111 482.685 264.528 502.194C242.006 521.649 212.154 529.523 157.757 538.874C155.744 539.22 153.763 539.557 151.814 539.884ZM207.135 539.038C246.984 537.388 273.987 532.878 297.283 521.757C330.035 506.122 355.163 477.986 389.997 417.941C424.831 357.896 436.752 322.171 433.98 286.125C431.248 250.583 413.898 215.252 378.455 154.155C333.044 75.8735 305.36 55.5232 251.516 38.7409C290.449 53.06 315.817 76.3259 355.755 142.542C391.682 202.109 409.56 236.745 413.985 272.474C418.48 308.767 409.359 345.32 380.332 407.34C351.299 469.376 329.483 498.911 299.837 516.315C276.888 529.787 249.561 535.536 207.135 539.038ZM168.851 541.834C156.427 543.085 145.212 544.031 134.97 544.588C132.878 544.901 130.826 545.199 128.812 545.481C130.266 545.79 131.735 546.053 133.22 546.269C144.403 546.258 156.949 544.676 171.815 541.813C170.834 541.821 169.845 541.828 168.851 541.834ZM89.819 5.24542C75.2116 5.24542 62.2313 7.48162 50.527 12.0028C51.2386 12.0074 51.9556 12.0177 52.678 12.0336C72.5952 4.92461 97.5142 4.52527 130.3 11.8012C146.611 15.4208 161.142 18.2793 173.965 20.8016L174.018 20.8119L174.02 20.8124C176.966 21.3919 179.836 21.9564 182.634 22.5117C170.566 19.7104 157.196 16.5608 142.489 12.8091C122.804 7.78622 105.386 5.24542 89.819 5.24542ZM-101.04 299.478C-100.6 275.032 -93.8351 250.361 -80.1561 217.033C-92.6497 264.275 -97.9339 295.203 -95.3683 325.047C-94.0873 339.944 -90.7724 354.712 -84.8208 370.772C-96.7244 343.623 -101.441 321.746 -101.04 299.478ZM168.825 539.518C170.992 539.405 173.128 539.291 175.231 539.175C177.382 538.948 179.568 538.713 181.79 538.47C185.861 538.026 189.808 537.582 193.636 537.136C197.117 536.331 200.711 535.479 204.426 534.582C206.078 534.183 207.704 533.788 209.306 533.394C210.915 532.89 212.55 532.372 214.211 531.842C259.003 517.555 283.306 506.993 300.271 485.604C317.309 464.124 327.314 430.64 335.954 366.184C344.713 300.838 344.339 263.727 334.574 229.252C324.952 195.278 306.124 164.491 270.121 112.364C212.774 29.3353 192.721 27.7656 133.195 23.106L133.194 23.106L133.08 23.097C130.123 22.8654 127.053 22.6249 123.866 22.3655C193.686 33.5273 217.338 37.4708 275.239 126.86C311.475 182.8 330.008 215.602 337.331 250.719C344.767 286.379 340.776 323.555 322.609 387.89C304.432 452.264 289.045 483.65 265.839 503.697C243.845 522.696 215.188 530.786 164.354 539.747C165.829 539.673 167.319 539.597 168.825 539.518ZM298.82 514.601C278.003 526.822 253.42 532.615 216.861 536.169C255.749 530.634 280.6 523.579 301.016 508.997C327.346 490.189 345.84 459.648 369.252 396.306C392.655 332.992 399.111 296.063 393.076 260.051C387.132 224.592 368.888 190.865 332.75 133.108C292.674 69.0559 268.161 46.9804 231.786 34.5253C281.855 48.6884 308.332 67.7841 354.04 143.566C389.82 202.887 407.618 237.345 411.999 272.718C416.444 308.598 407.369 344.857 378.52 406.501C349.677 468.127 328.076 497.426 298.82 514.601ZM58.7496 12.2929C63.4816 12.5894 68.434 13.1118 73.6223 13.865C83.7294 12.982 95.1418 13.4738 108.098 15.4068C122.202 17.5107 134.732 19.0205 145.786 20.3521C210.862 28.1924 232.785 30.8338 290.811 117.524C327.041 171.649 345.792 203.515 354.364 238.222C363.067 273.464 361.356 310.772 348.051 375.876C334.737 441.026 322.251 473.105 301.984 494.238C281.296 515.81 251.306 525.128 211.553 534.896C253.021 529.295 278.884 522.353 299.85 507.38C325.483 489.07 344.415 457.736 367.375 395.618C390.644 332.665 397.075 296.012 391.103 260.379C385.215 225.251 367.048 191.69 331.053 134.161C273.666 42.4425 248.458 37.4839 173.631 22.7647L173.63 22.7645C160.783 20.2376 146.221 17.3734 129.864 13.7438C101.252 7.39301 78.0364 6.8101 58.7496 12.2929ZM95.5836 17.6975C91.5684 16.9976 87.4214 16.2536 83.141 15.456C90.7383 15.407 98.9398 16.0532 107.801 17.3744C119.51 19.1214 130.128 20.4587 139.719 21.6238C137.646 21.4578 135.524 21.2917 133.35 21.1215L133.331 21.12C123.111 20.3203 111.528 19.4138 98.4683 17.9886C97.497 17.8827 96.5355 17.7857 95.5836 17.6975ZM242.222 524.506C267.773 515.139 287.686 504.684 301.842 486.837C319.348 464.765 329.132 432.136 337.936 366.445C346.735 300.805 346.346 263.475 336.499 228.712C331.652 211.598 324.176 194.468 312.969 174.801C302.397 156.247 288.853 135.972 271.769 111.237C231.915 53.5327 209.881 34.8048 180.36 27.1976C220.307 34.638 243.391 50.2687 289.147 118.626C325.245 172.555 343.921 204.278 352.422 238.698C361.048 273.622 359.332 310.694 346.092 375.48C333.03 439.389 320.258 472.301 300.537 492.863C286.596 507.4 268.957 516.299 242.222 524.506Z" fill="url(#paint0_linear_312_78)"/>
<defs>
<linearGradient id="paint0_linear_312_78" x1="-130.766" y1="298.77" x2="156.022" y2="576.532" gradientUnits="userSpaceOnUse">
<stop stop-color="#3C3CF0" stop-opacity="0.01"/>
<stop offset="1" stop-color="#635034"/>
</linearGradient>
</defs>
</svg>

<svg xmlns="http://www.w3.org/2000/svg" width="437" height="549" fill="none"><path fill="url(#a)" fill-rule="evenodd" d="M42.569 12.198C57.138 5.41 73.319 2.043 91.789 2.043c18.864 0 40.119 3.517 64.46 10.491 15.855 4.544 30.274 8.407 43.281 11.85q-4.673-1.087-9.603-2.227c-13.789-3.19-29.419-6.806-46.941-11.277-42.872-10.938-73.7-9.862-98.025 1.206q-1.207.045-2.392.112m-5.468.448C66.346-2.861 103.092-4.77 156.802 10.62c18.745 5.372 35.487 9.793 50.262 13.695l.055.015c86.858 22.934 116.119 30.66 173.068 128.829 35.598 61.362 53.026 96.888 55.788 132.811 2.805 36.494-9.186 72.531-44.246 132.965-35.059 60.434-60.422 88.788-93.581 104.616-26.993 12.885-58.763 16.99-109.211 18.025-16.272 4.511-30.833 7.423-44.299 7.423-3.834 0-7.58-.236-11.25-.738h-.314c-5.699 0-11.054-.402-16.192-1.244-11.033 1.28-20.87 1.977-29.853 1.978-16.067.001-29.407-2.229-42.02-7.346-8.152-3.308-15.944-7.767-23.786-13.808a136 136 0 0 1-10.004-4.29c-33.159-15.828-58.522-44.182-93.582-104.616s-47.051-96.471-44.245-132.965c2.762-35.924 20.189-71.449 55.787-132.811a6898 6898 0 0 0 9.316-16.12l.002-.003c2.591-4.492 5.132-8.898 7.633-13.213C-33.994 58.371-13.98 18.134 37.1 12.646m-86.486 103.463c9.423-29.856 19.213-54.096 32.522-71.286 12.7-16.402 28.563-26.077 49.12-29.446C.78 34.218-22.154 69.468-49.384 116.11m-2.627 8.494C-25.765 79.318-3.707 43.581 24.63 22.845a108 108 0 0 1 13.024-8.196q1.276-.136 2.575-.243C1.37 34.88-20.699 82.33-51.06 147.612l-.003.006a7348 7348 0 0 1-7.711 16.544c-4.306 9.201-8.285 17.833-11.942 25.977q.437-1.556.883-3.133a8407 8407 0 0 0 4.492-15.994l.004-.014.001-.004.325-1.158.001-.006c4.513-16.112 8.748-31.233 12.999-45.228m-4.331 7.489-3.424 5.934-.004.007a7111 7111 0 0 1-9.317 16.122c-35.444 61.097-52.794 96.427-55.526 131.97-2.771 36.046 9.15 71.771 43.984 131.816s59.961 88.181 92.714 103.816q1.89.903 3.816 1.748c-11.985-10.298-24.298-24.472-38.38-44.028-10.205-13.342-20.96-29.572-32.926-49.41-35.382-58.661-48.292-94.064-47.633-130.626.503-27.917 9.122-56.021 26.716-96.609a2394 2394 0 0 1 4.563-16.364q2.473-8.772 4.82-17.165l.003-.009c3.672-13.11 7.15-25.527 10.594-37.202m84.463 398.19c5.84 3.978 11.673 7.102 17.645 9.525 17.962 7.287 37.55 8.6 64.701 5.902a79 79 0 0 1-2.565-.674c-11.971-.379-22.491-1.675-32.202-4.115-7.942-1.061-15.267-2.531-22.175-4.488-9.179-1.581-17.56-3.595-25.404-6.15M39 531.344c-5.782-1.462-11.245-3.163-16.48-5.14-6.479-5.019-13.024-11.144-19.836-18.584 10.822 9.958 21.658 17.112 33.411 22.451q1.443.655 2.904 1.273m20.139 3.974a241 241 0 0 1-5.152-.826c-5.964-1.694-11.607-3.754-17.062-6.233-20.144-9.151-37.594-23.765-57.043-48.982-6.398-8.806-13.135-18.7-20.33-29.806-35.483-54.781-49.828-88.55-52.927-124.592-2.788-32.423 3.805-66.263 18.947-121.395 5.067-11.685 10.883-24.414 17.466-38.481 2.514-5.37 4.962-10.634 7.358-15.786l.355-.762.002-.005C-24.596 95.449-5.125 53.586 22.231 29.389c7.198-6.368 14.926-11.46 23.325-15.294q1.01-.036 2.035-.054c-42.555 18.454-61.44 69.905-88.5 143.622l-.003.011-.01.029a8836 8836 0 0 1-6.207 16.868c-23.765 64.295-34.847 101.223-33.55 137.185 1.317 36.529 15.038 71.257 50.624 128.132 35.541 56.805 59.736 82.697 89.194 95.43m32.424 3.189c-8.582-.504-16.537-1.176-23.974-2.059a104 104 0 0 1-7.501-2.89c-28.737-12.369-53.535-38.927-88.445-94.721-35.381-56.549-49.02-91.01-50.323-127.152-1.285-35.631 9.756-72.381 33.428-136.428a7542 7542 0 0 0 5.69-15.463l.003-.007.001-.002.525-1.429c19.862-54.112 35.55-96.851 59.408-122.323 9.528-10.173 20.333-17.467 32.87-21.973q6.002.148 12.456.822C9.188 24.615-2.663 83.2-21.496 176.284l-.003.013-.046.229-.001.006-.004.017a8690 8690 0 0 1-3.477 17.128c-13.513 66.122-19.115 103.862-14.4 139.493 4.727 35.727 20.29 70.143 55.506 122.756 31.385 46.886 52.956 70.741 75.484 82.581m15.539.716q-5.366-.187-10.437-.439c-23.548-10.856-46.233-35.129-78.922-83.963-35.486-53.013-50.443-86.055-55.187-121.912-3.728-28.165-2.526-56.124 14.377-138.836 1.21-5.922 2.383-11.717 3.53-17.383C-8.278 121.031.615 77.067 18.127 49.533 31.136 29.083 48.876 18.16 73.76 15.898q3.442.507 7.012 1.147C9.85 17.758 1.714 79.321-12.237 184.88v.001l-.002.013-.046.353-.003.019-.002.013v.002c-.739 5.587-1.494 11.299-2.276 17.133-8.937 66.673-12.098 104.623-5.896 139.967 6.221 35.442 22.326 69.059 57.443 119.904 29.544 42.776 49.982 65.484 70.121 76.939m44.712.661c-14.682-.016-27.997-.157-40.167-.515-20.923-10.649-42.32-33.767-73.018-78.212-35.393-51.244-50.874-83.529-57.12-119.119-4.907-27.957-5.274-55.942 5.907-139.361.786-5.86 1.545-11.596 2.286-17.206l.042-.318C-2.838 129.022 3.022 84.687 17.667 56.344c13.148-25.446 33.385-37.302 64.556-37.302 4.168 0 8.532.211 13.1.631 10.089 1.758 19.345 3.238 27.801 4.59h.001c69.489 11.109 92.898 14.851 150.433 103.675 36.098 55.73 54.556 88.378 61.814 123.186 7.364 35.312 3.383 72.234-14.688 136.228-17.829 63.135-33.573 95.333-56.156 114.842-22.522 19.455-52.374 27.329-106.771 36.68q-3.02.52-5.943 1.01m55.321-.846c39.849-1.65 66.852-6.16 90.148-17.281 32.752-15.635 57.88-43.771 92.714-103.816s46.755-95.77 43.983-131.816c-2.732-35.542-20.082-70.873-55.525-131.97-45.411-78.281-73.095-98.632-126.939-115.414 38.933 14.319 64.301 37.585 104.239 103.801 35.927 59.567 53.805 94.203 58.23 129.932 4.495 36.293-4.626 72.846-33.653 134.866-29.033 62.036-50.849 91.571-80.495 108.975-22.949 13.472-50.276 19.221-92.702 22.723m-38.284 2.796c-12.424 1.251-23.639 2.197-33.881 2.754a662 662 0 0 1-6.158.893 69 69 0 0 0 4.408.788c11.183-.011 23.729-1.593 38.595-4.456q-1.472.012-2.964.021M89.819 5.245c-14.607 0-27.588 2.237-39.292 6.758q1.068.007 2.151.03c19.917-7.108 44.836-7.508 77.622-.232 16.311 3.62 30.842 6.478 43.665 9l.053.01.002.001c2.946.58 5.816 1.144 8.614 1.7-12.068-2.802-25.438-5.951-40.145-9.703-19.685-5.023-37.103-7.564-52.67-7.564M-101.04 299.478c.44-24.446 7.205-49.117 20.884-82.445-12.494 47.242-17.778 78.17-15.212 108.014 1.28 14.897 4.596 29.665 10.547 45.725-11.903-27.149-16.62-49.026-16.219-71.294m269.865 240.04q3.251-.17 6.406-.343 3.226-.34 6.559-.705 6.105-.665 11.846-1.334c3.481-.805 7.075-1.657 10.79-2.554q2.477-.598 4.88-1.188a969 969 0 0 0 4.905-1.552c44.792-14.287 69.095-24.849 86.06-46.238 17.038-21.48 27.043-54.964 35.683-119.42 8.759-65.346 8.385-102.457-1.38-136.932-9.622-33.974-28.45-64.761-64.453-116.888-57.347-83.029-77.4-84.598-136.926-89.258h-.001l-.114-.009c-2.957-.232-6.027-.472-9.214-.732 69.82 11.162 93.472 15.106 151.373 104.495 36.236 55.94 54.769 88.742 62.092 123.859 7.436 35.66 3.445 72.836-14.722 137.171-18.177 64.374-33.564 95.76-56.77 115.807-21.994 18.999-50.651 27.089-101.485 36.05q2.212-.11 4.471-.229m129.995-24.917c-20.817 12.221-45.4 18.014-81.959 21.568 38.888-5.535 63.739-12.59 84.155-27.172 26.33-18.808 44.824-49.349 68.236-112.691 23.403-63.314 29.859-100.243 23.824-136.255-5.944-35.459-24.188-69.186-60.326-126.943-40.076-64.052-64.589-86.128-100.964-98.583 50.069 14.163 76.546 33.26 122.254 109.041 35.78 59.321 53.578 93.779 57.959 129.152 4.445 35.88-4.63 72.139-33.479 133.783-28.843 61.626-50.444 90.925-79.7 108.1M58.75 12.293c4.732.296 9.684.819 14.872 1.572 10.107-.883 21.52-.391 34.476 1.542 14.104 2.104 26.634 3.613 37.688 4.945 65.076 7.84 86.999 10.482 145.025 97.172 36.23 54.125 54.981 85.991 63.553 120.698 8.703 35.242 6.992 72.55-6.313 137.654-13.314 65.15-25.8 97.229-46.067 118.362-20.688 21.572-50.678 30.89-90.431 40.658 41.468-5.601 67.331-12.543 88.297-27.516 25.633-18.31 44.565-49.644 67.525-111.762 23.269-62.953 29.7-99.606 23.728-135.239-5.888-35.128-24.055-68.689-60.05-126.218-57.387-91.718-82.595-96.677-157.422-111.396h-.001c-12.847-2.527-27.409-5.392-43.766-9.021-28.612-6.351-51.828-6.934-71.114-1.451m36.834 5.405c-4.016-.7-8.163-1.444-12.443-2.242 7.597-.049 15.799.597 24.66 1.918 11.709 1.747 22.327 3.085 31.918 4.25q-3.109-.248-6.369-.502l-.019-.002c-10.22-.8-21.803-1.706-34.863-3.131q-1.457-.159-2.884-.291m146.638 506.808c25.551-9.367 45.464-19.822 59.62-37.669 17.506-22.072 27.29-54.701 36.094-120.392 8.799-65.64 8.41-102.97-1.437-137.733-4.847-17.114-12.323-34.244-23.53-53.911-10.572-18.554-24.116-38.829-41.2-63.564-39.854-57.704-61.888-76.432-91.409-84.04 39.947 7.441 63.031 23.072 108.787 91.429 36.098 53.929 54.774 85.652 63.275 120.072 8.626 34.924 6.91 71.996-6.33 136.782-13.062 63.909-25.834 96.821-45.555 117.383-13.941 14.537-31.58 23.436-58.315 31.643" clip-rule="evenodd"/><defs><linearGradient id="a" x1="-130.766" x2="156.022" y1="298.77" y2="576.532" gradientUnits="userSpaceOnUse"><stop stop-color="#3C3CF0" stop-opacity=".01"/><stop offset="1" stop-color="#635034"/></linearGradient></defs></svg>
